X: 0206
T: The Soldier's Joy
P: The Soldier's Joy
C:Joshua Campbell's Collection 1778
R:Reel (8x32)
B:RSCDS 2-6
Z:Anselm Lingnau <anselm@strathspey.org>
M:C|
L:1/8
K:D
|:FG|"D"AFDF AFDF|A2 [d2F2] "G"[d2G2] cB|"D"AFDF AFDF|"A"G2 E2 E2 FG|
 "D"AFDF AFDF|A2 [d2F2] "Bm"[d2F2] de|"A"fafd "A7"egec|"D"d2 d2 d2:|
|:de|"D"f2 f2 fagf|"A"edcd egfe|"D"f2 f2 fagf|"Em"ed"E7"cB "A7"A2 de|
 "D"f2 fe fagf|"Em"ed"E7"cd "A"efge|"D"fafd "A7"egec|"D"d2 D2 D2:|
%%center Book02/0206-Soldiers_Joy-AL.abc

%%sep 1 1 500
%%sep 1 1 500

